X: 150
M: 6/4
L: 1/4
K: D
d2f e2g | faf def | efg faf | d3- d2A, |\
|: f |\
(eg)f e2d | c3- c2g |
(fa)g f2g | e3- e2f |\
gbg faf | ege dag | faf eAc | d3- d2F |\

